22x22/apps/wps-office2019-kprometheus.svg

<svg xmlns="http://www.w3.org/2000/svg" width="22" height="22" version="1">
 <path style="opacity:0.2" d="m 11.053711,1.4999983 v 9.756e-4 A 2.2828381,2.2739423 0 0 0 9.8583981,1.8037082 L 3.1416017,5.6669759 A 2.2828381,2.2739423 0 0 0 2.0000001,7.6366964 v 7.7265376 a 2.2828381,2.2739423 0 0 0 1.1416016,1.968743 l 6.7167964,3.863268 a 2.2828381,2.2739423 0 0 0 2.2832029,0 l 6.716798,-3.863268 A 2.2828381,2.2739423 0 0 0 20,15.363234 V 7.6366964 A 2.2828381,2.2739423 0 0 0 18.858399,5.6669759 L 12.141601,1.8037082 a 2.2828381,2.2739423 0 0 0 -1.08789,-0.3037099 z"/>
 <path style="fill:#2975e6" d="M 11.053711,0.99999949 V 1.0009751 A 2.2828381,2.2739423 0 0 0 9.8583981,1.3037094 L 3.1416017,5.1669771 A 2.2828381,2.2739423 0 0 0 2.0000001,7.1366976 v 7.7265364 a 2.2828381,2.2739423 0 0 0 1.1416016,1.968743 l 6.7167964,3.863268 a 2.2828381,2.2739423 0 0 0 2.2832029,0 l 6.716798,-3.863268 A 2.2828381,2.2739423 0 0 0 20,14.863234 V 7.1366976 A 2.2828381,2.2739423 0 0 0 18.858399,5.1669771 L 12.141601,1.3037094 a 2.2828381,2.2739423 0 0 0 -1.08789,-0.30370991 z"/>
 <path style="opacity:0.2" d="m 4.7871095,7.5001342 a 0.7862953,0.7862953 0 0 0 -0.703125,1.140625 l 3.7558594,7.4277338 a 0.7862953,0.7862953 0 0 0 1.3789062,0.04297 l 1.1621089,-1.978516 0.408203,-0.695312 v -0.002 l 0.939454,-1.597656 0.71875,-1.22461 0.904296,-1.5410154 h 2.490235 l -2.9375,5.0175784 -0.902344,-1.730469 -0.939453,1.599609 1.105469,2.119141 a 0.7862953,0.7862953 0 0 0 1.375,0.0332 L 17.892578,8.683728 A 0.7862953,0.7862953 0 0 0 17.212891,7.5001342 h -4.310547 a 0.7862953,0.7862953 0 0 0 -0.677735,0.3886719 l -0.957031,1.6308585 -0.333984,0.5683604 -0.02734,0.04687 -0.9453119,1.609375 -0.441407,0.751953 -0.189453,0.322265 L 8.5937501,14.0724 6.0644532,9.0723996 H 8.6035157 L 9.6914061,11.214978 10.636719,9.6036496 9.7871091,7.9298217 A 0.7862953,0.7862953 0 0 0 9.0859381,7.5001342 Z"/>
 <path style="fill:#f4f4f7" d="m 4.7871095,6.9999996 a 0.7862953,0.7862953 0 0 0 -0.703125,1.140625 l 3.7558594,7.4277344 a 0.7862953,0.7862953 0 0 0 1.3789062,0.04297 l 1.1621089,-1.978516 0.408203,-0.695312 v -0.002 l 0.939454,-1.597656 0.71875,-1.22461 0.904296,-1.5410158 h 2.490235 l -2.9375,5.0175788 -0.902344,-1.730469 -0.939453,1.599609 1.105469,2.119141 a 0.7862953,0.7862953 0 0 0 1.375,0.0332 L 17.892578,8.1835934 A 0.7862953,0.7862953 0 0 0 17.212891,6.9999996 h -4.310547 a 0.7862953,0.7862953 0 0 0 -0.677735,0.3886719 l -0.957031,1.6308591 -0.333984,0.56836 -0.02734,0.04687 -0.9453119,1.6093754 -0.441407,0.751953 -0.189453,0.322265 -0.736332,1.253912 L 6.0644532,8.5722652 H 8.6035157 L 9.6914061,10.714844 10.636719,9.1035156 9.7871091,7.4296871 A 0.7862953,0.7862953 0 0 0 9.0859381,6.9999996 Z"/>
 <path style="opacity:0.2;fill:#f4f4f7" d="M 11.054688,0.99999959 A 2.2828381,2.2739423 0 0 0 9.8574221,1.302734 L 3.1425782,5.1660152 A 2.2828381,2.2739423 0 0 0 2.0000001,7.1367184 v 0.5 A 2.2828381,2.2739423 0 0 1 3.1425782,5.6660152 L 9.8574221,1.802734 A 2.2828381,2.2739423 0 0 1 11.054688,1.4999996 2.2828381,2.2739423 0 0 1 12.140625,1.802734 l 6.71875,3.8632812 A 2.2828381,2.2739423 0 0 1 20,7.6367184 v -0.5 A 2.2828381,2.2739423 0 0 0 18.859375,5.1660152 L 12.140625,1.302734 A 2.2828381,2.2739423 0 0 0 11.054688,0.99999959 Z"/>
</svg>

<svg xmlns="http://www.w3.org/2000/svg" width="22" height="22" version="1"><path style="opacity:.2" d="M11.054 1.5v.001a2.283 2.274 0 0 0-1.196.303L3.142 5.667A2.283 2.274 0 0 0 2 7.637v7.726a2.283 2.274 0 0 0 1.142 1.969l6.716 3.863a2.283 2.274 0 0 0 2.284 0l6.716-3.863A2.283 2.274 0 0 0 20 15.363V7.637a2.283 2.274 0 0 0-1.142-1.97l-6.716-3.863a2.283 2.274 0 0 0-1.088-.304z"/><path style="fill:#2975e6" d="M11.054 1v.001a2.283 2.274 0 0 0-1.196.303L3.142 5.167A2.283 2.274 0 0 0 2 7.137v7.726a2.283 2.274 0 0 0 1.142 1.969l6.716 3.863a2.283 2.274 0 0 0 2.284 0l6.716-3.863A2.283 2.274 0 0 0 20 14.863V7.137a2.283 2.274 0 0 0-1.142-1.97l-6.716-3.863A2.283 2.274 0 0 0 11.054 1z"/><path style="opacity:.2" d="M4.787 7.5a.786.786 0 0 0-.703 1.14l3.756 7.428a.786.786 0 0 0 1.379.043l1.162-1.978.408-.695v-.002l.94-1.598.718-1.225.905-1.54h2.49l-2.938 5.017-.902-1.73-.94 1.6 1.106 2.118a.786.786 0 0 0 1.375.033l4.35-7.427a.786.786 0 0 0-.68-1.184h-4.31a.786.786 0 0 0-.678.389l-.957 1.63-.334.569-.028.047-.945 1.61-.441.751-.19.322-.736 1.254-2.53-5h2.54l1.087 2.143.946-1.611-.85-1.674a.786.786 0 0 0-.701-.43z"/><path style="fill:#f4f4f7" d="M4.787 7a.786.786 0 0 0-.703 1.14l3.756 7.428a.786.786 0 0 0 1.379.043l1.162-1.978.408-.695v-.002l.94-1.598.718-1.225.905-1.54h2.49l-2.938 5.017-.902-1.73-.94 1.599 1.106 2.12a.786.786 0 0 0 1.375.032l4.35-7.427A.786.786 0 0 0 17.213 7h-4.31a.786.786 0 0 0-.678.389l-.957 1.63-.334.569-.028.047-.945 1.61-.441.751-.19.322-.736 1.254-2.53-5h2.54l1.087 2.143.946-1.611-.85-1.674A.786.786 0 0 0 9.086 7z"/><path style="opacity:.2;fill:#f4f4f7" d="M11.055 1a2.283 2.274 0 0 0-1.198.303L3.143 5.166A2.283 2.274 0 0 0 2 7.136v.5a2.283 2.274 0 0 1 1.143-1.97l6.714-3.863a2.283 2.274 0 0 1 1.198-.303 2.283 2.274 0 0 1 1.086.303l6.718 3.863A2.283 2.274 0 0 1 20 7.636v-.5a2.283 2.274 0 0 0-1.14-1.97l-6.72-3.863A2.283 2.274 0 0 0 11.056 1z"/></svg>
